local/templates/.default/frontend/main/images/icons/website96.svg

<svg xmlns="http://www.w3.org/2000/svg" width="180" height="50"><path fill-rule="evenodd" fill="#FFF" d="M149.612 32.031c-1.289-2.287-2.986-4.167-5.188-5.588-2.202-1.421-4.617-2.255-7.285-2.493l6.675-9.775h-.273c-3.13 0-6.26.001-9.391-.004-.175 0-.277.049-.376.193-3.49 5.047-6.975 10.097-10.487 15.129-.765 1.096-1.529 2.184-2.11 3.388a14.204 14.204 0 0 0-1.415 7.124c.229 3.835 1.785 7.1 4.494 9.856l.132.139c-3.843-.122-7.442-.999-10.831-2.685a25.289 25.289 0 0 1-8.616-6.949c-5.912-7.409-6.139-16.087-4.565-21.595 2.793 4.508 6.86 7.078 12.245 7.698l-6.662 9.755h.246c3.146 0 6.292-.001 9.438.004.171.001.261-.058.353-.191 3.491-5.046 6.977-10.096 10.488-15.128.747-1.071 1.498-2.132 2.071-3.305 1.119-2.289 1.613-4.701 1.455-7.229-.252-4.024-1.937-7.403-4.872-10.203-.05-.048-.102-.094-.139-.172 6.975.051 13.013 2.398 18.013 7.178a24.609 24.609 0 0 1 6.6 24.853zm-34.317-13.527a5.025 5.025 0 0 1-.487.051c-.21.008-.421.002-.631.002-3.496.043-6.456-2.225-7.362-5.453-.957-3.411.784-7.002 4.064-8.495 3.105-1.413 6.742-.701 9.01 1.766 2.054 2.234 2.51 5.574 1.019 8.196-1.225 2.153-3.054 3.564-5.613 3.933zm20.32 13.321c4.215.007 7.601 3.287 7.591 7.356-.01 4.078-3.4 7.342-7.614 7.33-4.233-.011-7.572-3.283-7.593-7.38-.019-3.654 3.313-7.408 7.616-7.306zM91.82 28.127h-7.738c.05 1.983.965 2.346 2.794 2.346.914 0 2.571-.169 3.51-.411l.569 2.83c-1.261.412-3.14.678-4.574.678-3.559 0-6.204-1.524-6.204-6.604 0-4.984 2.323-6.459 5.957-6.459 4.203 0 6.032 1.257 5.686 7.62zm-5.414-4.814c-1.582 0-2.076.508-2.299 2.08h4.4c-.049-1.717-.618-2.08-2.101-2.08zm-10.161 7.112c.791 0 1.434-.145 2.027-.339l.618 2.855c-.939.387-2.447.629-3.806.629-2.794 0-4.351-.823-4.351-4.524v-5.008h-2.052v-3.193h2.052v-1.838l3.807-1.5v3.338h3.955v3.193H74.54v4.621c0 1.258.37 1.766 1.705 1.766zM64.997 19.2c-1.632 0-2.151-.29-2.151-1.959 0-1.524.519-1.766 2.151-1.766 1.607 0 2.151.242 2.151 1.766 0 1.669-.544 1.959-2.151 1.959zm-8.604 6.338c2.942.363 4.252 1.234 4.252 3.774 0 3.363-2.472 4.258-5.661 4.258-1.359 0-3.337-.266-4.499-.678l.742-2.806c.939.266 2.348.508 3.584.508 1.483 0 2.176-.121 2.176-1.088 0-.678-.421-.944-2.522-1.137-2.645-.242-4.054-.992-4.054-3.629 0-3.363 2.447-4.233 5.612-4.233 1.359 0 3.139.266 4.326.677l-.742 2.758c-.989-.266-2.447-.533-3.733-.533-1.186 0-1.78.097-1.78 1.065 0 .653.346.822 2.299 1.064zM42.128 33.57c-1.977 0-4.375-.363-5.735-.871V15.765H40.2v5.443c.717-.363 1.928-.701 3.14-.701 3.288 0 4.993 1.427 4.993 6.41 0 5.08-1.903 6.653-6.205 6.653zm.099-9.87c-1.137 0-2.027.338-2.027.871v5.709c.593.217 1.36.314 1.928.314 1.805 0 2.398-.435 2.398-3.604 0-2.613-.544-3.29-2.299-3.29zm-16.168 4.427c.049 1.983.964 2.346 2.793 2.346.915 0 2.571-.169 3.511-.411l.568 2.83c-1.261.412-3.139.678-4.573.678-3.56 0-6.205-1.524-6.205-6.604 0-4.984 2.324-6.459 5.958-6.459 4.202 0 6.031 1.257 5.685 7.62h-7.737zm2.324-4.814c-1.583 0-2.077.508-2.299 2.08h4.4c-.05-1.717-.618-2.08-2.101-2.08zm-16.095 9.918c-.421-2.056-1.187-5.419-1.657-7.185-.469 2.177-1.433 5.371-2.051 7.185H4.031A153.075 153.075 0 0 0 .002 20.845h3.881c.989 2.613 1.903 5.564 2.645 8.515.766-2.225 1.953-6.41 2.472-8.515h3.436c.717 2.202 1.804 6.169 2.348 8.515.989-2.83 1.929-5.66 2.596-8.515h3.807c-1.187 3.943-2.719 8.491-4.351 12.386h-4.548zm54.612 0h-3.806V20.845H66.9v12.386zM173.603 33.594c-3.51 0-5.191-1.452-5.191-5.879v-6.87h3.757v6.58c0 2.226.396 2.855 2.25 2.855.618 0 1.162-.097 1.829-.242v-9.193h3.758v11.636c-1.607.557-4.153 1.113-6.403 1.113zm-11.1-8.491v8.128h-3.807V20.845h3.807v.968c.42-.726 1.236-1.306 3.065-1.306.371 0 .816.024 1.261.072v3.459c-.494-.145-1.162-.193-1.78-.193-1.36 0-2.546.435-2.546 1.258z"/></svg>

<svg
        xmlns="http://www.w3.org/2000/svg"
        xmlns:xlink="http://www.w3.org/1999/xlink"
        width="180px" height="50px">
    <path fill-rule="evenodd"  fill="rgb(255, 255, 255)"
          d="M149.612,32.031 C148.323,29.744 146.626,27.864 144.424,26.443 C142.222,25.022 139.807,24.188 137.139,23.950 C139.371,20.681 141.581,17.444 143.814,14.175 C143.692,14.175 143.616,14.175 143.541,14.175 C140.411,14.175 137.281,14.176 134.150,14.171 C133.975,14.171 133.873,14.220 133.774,14.364 C130.284,19.411 126.799,24.461 123.287,29.493 C122.522,30.589 121.758,31.677 121.177,32.881 C120.088,35.140 119.613,37.517 119.762,40.005 C119.991,43.840 121.547,47.105 124.256,49.861 C124.287,49.893 124.318,49.927 124.388,50.000 C120.545,49.878 116.946,49.001 113.557,47.315 C110.159,45.626 107.286,43.306 104.941,40.366 C99.029,32.957 98.802,24.279 100.376,18.771 C103.169,23.279 107.236,25.849 112.621,26.469 C110.403,29.717 108.192,32.954 105.959,36.224 C106.071,36.224 106.138,36.224 106.205,36.224 C109.351,36.224 112.497,36.223 115.643,36.228 C115.814,36.229 115.904,36.170 115.996,36.037 C119.487,30.991 122.973,25.941 126.484,20.909 C127.231,19.838 127.982,18.777 128.555,17.604 C129.674,15.315 130.168,12.903 130.010,10.375 C129.758,6.351 128.073,2.972 125.138,0.172 C125.088,0.124 125.036,0.078 124.999,0.000 C131.974,0.051 138.012,2.398 143.012,7.178 C149.725,13.595 152.255,23.174 149.612,32.031 ZM115.295,18.504 C115.133,18.527 114.970,18.548 114.808,18.555 C114.598,18.563 114.387,18.557 114.177,18.557 C110.681,18.600 107.721,16.332 106.815,13.104 C105.858,9.693 107.599,6.102 110.879,4.609 C113.984,3.196 117.621,3.908 119.889,6.375 C121.943,8.609 122.399,11.949 120.908,14.571 C119.683,16.724 117.854,18.135 115.295,18.504 ZM135.615,31.825 C139.830,31.832 143.216,35.112 143.206,39.181 C143.196,43.259 139.806,46.523 135.592,46.511 C131.359,46.500 128.020,43.228 127.999,39.131 C127.980,35.477 131.312,31.723 135.615,31.825 Z"/>
    <path fill-rule="evenodd"  fill="rgb(255, 255, 255)"
          d="M91.820,28.127 L84.082,28.127 C84.132,30.110 85.047,30.473 86.876,30.473 C87.790,30.473 89.447,30.304 90.386,30.062 L90.955,32.892 C89.694,33.304 87.815,33.570 86.381,33.570 C82.822,33.570 80.177,32.046 80.177,26.966 C80.177,21.982 82.500,20.507 86.134,20.507 C90.337,20.507 92.166,21.764 91.820,28.127 ZM86.406,23.313 C84.824,23.313 84.330,23.821 84.107,25.393 L88.507,25.393 C88.458,23.676 87.889,23.313 86.406,23.313 ZM76.245,30.425 C77.036,30.425 77.679,30.280 78.272,30.086 L78.890,32.941 C77.951,33.328 76.443,33.570 75.084,33.570 C72.290,33.570 70.733,32.747 70.733,29.046 L70.733,24.038 L68.681,24.038 L68.681,20.845 L70.733,20.845 L70.733,19.007 L74.540,17.507 L74.540,20.845 L78.495,20.845 L78.495,24.038 L74.540,24.038 L74.540,28.659 C74.540,29.917 74.910,30.425 76.245,30.425 ZM64.997,19.200 C63.365,19.200 62.846,18.910 62.846,17.241 C62.846,15.717 63.365,15.475 64.997,15.475 C66.604,15.475 67.148,15.717 67.148,17.241 C67.148,18.910 66.604,19.200 64.997,19.200 ZM56.393,25.538 C59.335,25.901 60.645,26.772 60.645,29.312 C60.645,32.675 58.173,33.570 54.984,33.570 C53.625,33.570 51.647,33.304 50.485,32.892 L51.227,30.086 C52.166,30.352 53.575,30.594 54.811,30.594 C56.294,30.594 56.987,30.473 56.987,29.506 C56.987,28.828 56.566,28.562 54.465,28.369 C51.820,28.127 50.411,27.377 50.411,24.740 C50.411,21.377 52.858,20.507 56.023,20.507 C57.382,20.507 59.162,20.773 60.349,21.184 L59.607,23.942 C58.618,23.676 57.160,23.409 55.874,23.409 C54.688,23.409 54.094,23.506 54.094,24.474 C54.094,25.127 54.440,25.296 56.393,25.538 ZM42.128,33.570 C40.151,33.570 37.753,33.207 36.393,32.699 L36.393,15.765 L40.200,15.765 L40.200,21.208 C40.917,20.845 42.128,20.507 43.340,20.507 C46.628,20.507 48.333,21.934 48.333,26.917 C48.333,31.997 46.430,33.570 42.128,33.570 ZM42.227,23.700 C41.090,23.700 40.200,24.038 40.200,24.571 L40.200,30.280 C40.793,30.497 41.560,30.594 42.128,30.594 C43.933,30.594 44.526,30.159 44.526,26.990 C44.526,24.377 43.982,23.700 42.227,23.700 ZM26.059,28.127 C26.108,30.110 27.023,30.473 28.852,30.473 C29.767,30.473 31.423,30.304 32.363,30.062 L32.931,32.892 C31.670,33.304 29.792,33.570 28.358,33.570 C24.798,33.570 22.153,32.046 22.153,26.966 C22.153,21.982 24.477,20.507 28.111,20.507 C32.313,20.507 34.142,21.764 33.796,28.127 L26.059,28.127 ZM28.383,23.313 C26.800,23.313 26.306,23.821 26.084,25.393 L30.484,25.393 C30.434,23.676 29.866,23.313 28.383,23.313 ZM12.288,33.231 C11.867,31.175 11.101,27.812 10.631,26.046 C10.162,28.223 9.198,31.417 8.580,33.231 L4.031,33.231 C2.820,28.877 1.460,24.764 0.002,20.845 L3.883,20.845 C4.872,23.458 5.786,26.409 6.528,29.360 C7.294,27.135 8.481,22.950 9.000,20.845 L12.436,20.845 C13.153,23.047 14.240,27.014 14.784,29.360 C15.773,26.530 16.713,23.700 17.380,20.845 L21.187,20.845 C20.000,24.788 18.468,29.336 16.836,33.231 L12.288,33.231 ZM66.900,33.231 L63.094,33.231 L63.094,20.845 L66.900,20.845 L66.900,33.231 Z"/>
    <path fill-rule="evenodd"  fill="rgb(255, 255, 255)"
          d="M173.603,33.594 C170.093,33.594 168.412,32.142 168.412,27.715 L168.412,20.845 L172.169,20.845 L172.169,27.425 C172.169,29.651 172.565,30.280 174.419,30.280 C175.037,30.280 175.581,30.183 176.248,30.038 L176.248,20.845 L180.006,20.845 L180.006,32.481 C178.399,33.038 175.853,33.594 173.603,33.594 ZM162.503,25.103 L162.503,33.231 L158.696,33.231 L158.696,20.845 L162.503,20.845 L162.503,21.813 C162.923,21.087 163.739,20.507 165.568,20.507 C165.939,20.507 166.384,20.531 166.829,20.579 L166.829,24.038 C166.335,23.893 165.667,23.845 165.049,23.845 C163.689,23.845 162.503,24.280 162.503,25.103 Z"/>
</svg>
